scripts/debs/qogir-icon-theme/usr/share/icons/Qogir/scalable/apps/com.usebottles.bottles.Devel.svg

<svg width="64" height="64" version="1.1" viewBox="0 0 64 64" xmlns="http://www.w3.org/2000/svg" xmlns:xlink="http://www.w3.org/1999/xlink">
 <linearGradient id="a" x1="49" x2="79" y1="68" y2="68" gradientUnits="userSpaceOnUse">
  <stop stop-color="#deddda" offset="0"/>
  <stop stop-color="#f6f5f4" offset=".25"/>
  <stop stop-color="#ffffff" offset=".75"/>
  <stop stop-color="#deddda" stop-opacity=".8549" offset="1"/>
 </linearGradient>
 <linearGradient id="b" x1="49" x2="79" y1="31.453" y2="31.453" gradientTransform="matrix(1.0029 0 0 1 -.1412 0)" gradientUnits="userSpaceOnUse">
  <stop stop-color="#c0bfbc" offset="0"/>
  <stop stop-color="#deddda" offset=".25"/>
  <stop stop-color="#f6f5f4" offset=".75"/>
  <stop stop-color="#c0bfbc" offset="1"/>
 </linearGradient>
 <linearGradient id="c" x1="12" x2="49" y1="42.917" y2="42.917" gradientUnits="userSpaceOnUse">
  <stop stop-color="#c0bfbc" offset="0"/>
  <stop stop-color="#deddda" offset=".25"/>
  <stop stop-color="#deddda" offset=".75"/>
  <stop stop-color="#c0bfbc" offset="1"/>
 </linearGradient>
 <linearGradient id="d" gradientUnits="userSpaceOnUse">
  <stop stop-color="#1a5fb4" offset="0"/>
  <stop stop-color="#1c71d8" offset=".25"/>
  <stop stop-color="#3584e4" offset=".75"/>
  <stop stop-color="#1a5fb4" offset="1"/>
 </linearGradient>
 <linearGradient id="e" x1="49" x2="79" y1="21.471" y2="21.471" xlink:href="#d"/>
 <linearGradient id="f" x1="49" x2="79" y1="68" y2="68" xlink:href="#d"/>
 <linearGradient id="g" x1="12" x2="49" y1="74.97" y2="74.97" gradientUnits="userSpaceOnUse">
  <stop stop-color="#ffa348" offset="0"/>
  <stop stop-color="#ffbe6f" offset=".25"/>
  <stop stop-color="#ffbe6f" offset=".75"/>
  <stop stop-color="#ffa348" offset="1"/>
 </linearGradient>
 <linearGradient id="h" x1="79" x2="116" y1="75.564" y2="75.564" gradientUnits="userSpaceOnUse">
  <stop stop-color="#e01b24" offset="0"/>
  <stop stop-color="#ed333b" offset=".25"/>
  <stop stop-color="#f66151" offset=".75"/>
  <stop stop-color="#e01b24" offset="1"/>
 </linearGradient>
 <linearGradient id="i" x1="24" x2="37" y1="14" y2="14" gradientUnits="userSpaceOnUse">
  <stop stop-color="#33d17a" offset="0"/>
  <stop stop-color="#57e389" offset=".38845"/>
  <stop stop-color="#57e389" offset=".75"/>
  <stop stop-color="#2ec27e" stop-opacity=".8549" offset="1"/>
 </linearGradient>
 <linearGradient id="j" x1="79" x2="116" y1="35.962" y2="35.962" gradientUnits="userSpaceOnUse">
  <stop stop-color="#3d3846" offset="0"/>
  <stop stop-color="#5e5c64" offset=".25"/>
  <stop stop-color="#77767b" offset=".75"/>
  <stop stop-color="#77767b" offset="1"/>
 </linearGradient>
 <linearGradient id="k" gradientUnits="userSpaceOnUse">
  <stop stop-color="#9a9996" offset="0"/>
  <stop stop-color="#c0bfbc" offset=".25"/>
  <stop stop-color="#deddda" offset=".75"/>
  <stop stop-color="#9a9996" offset="1"/>
 </linearGradient>
 <linearGradient id="l" x1="79" x2="116" y1="31.472" y2="31.472" xlink:href="#k"/>
 <linearGradient id="m" x1="78.999" x2="116" y1="273.23" y2="273.23" gradientTransform="matrix(.99996 0 0 .81447 .003815 -120.79)" xlink:href="#k"/>
 <clipPath id="n">
  <rect width="128" height="128"/>
 </clipPath>
 <clipPath id="o">
  <rect width="128" height="128"/>
 </clipPath>
 <filter id="p" x="0" y="0" width="1" height="1">
  <feColorMatrix in="SourceGraphic" values="0 0 0 0 1 0 0 0 0 1 0 0 0 0 1 0 0 0 1 0"/>
 </filter>
 <mask id="q">
  <g clip-path="url(#o)" filter="url(#p)">
   <g clip-path="url(#n)">
    <path d="m54.547 24s-5.5469 13.609-5.5469 14.516v73.484h30v-73.488c0 0.003906-5-14.512-5-14.512z" fill="url(#a)"/>
    <path d="m54 24s-5 13.609-5 14.512h30c0-0.48828-5-14.512-5-14.512z" fill="url(#b)"/>
    <path d="m12 47.895c0.49609 0.01563 37 0 37 0 0-12.816-11.844-23.895-12-31.895h-13c0 8-12.004 19.078-12 31.895z" fill="url(#c)"/>
    <path d="m79 112h-30v4h30z" fill="#c0bfbc"/>
    <path d="m54 18.941v5.0586h20v-5.0586z" fill="url(#e)"/>
    <path d="m64 56.035c-7.5 0-7.5 9.457-7.5 9.457h-7.5v14.469h30v-14.469h-7.5s0-9.457-7.5-9.457zm0 2s5.4531 6.6523 3.457 9.9414-4.9219 3.2891-6.918 0 3.4609-9.9414 3.4609-9.9414z" fill="url(#f)"/>
    <path d="m49 112h-29.574c-0.125 0-0.25391-4e-3 -0.37891-0.0117-0.12891-4e-3 -0.25391-0.0156-0.37891-0.0312-0.12891-0.0117-0.25-0.0273-0.375-0.0508-0.125-0.0195-0.24219-0.043-0.36719-0.0703-0.12109-0.0234-0.24219-0.0547-0.35938-0.0898-0.11719-0.0312-0.23438-0.0664-0.35156-0.10546-0.23438-0.0781-0.46094-0.16797-0.68359-0.26954-0.22266-0.0977-0.44141-0.21093-0.65234-0.33593-0.20703-0.1211-0.41016-0.25391-0.60938-0.39844s-0.39062-0.29688-0.57031-0.46094c-0.18359-0.16015-0.36328-0.33203-0.52734-0.51562-0.16797-0.17969-0.32812-0.3711-0.48047-0.56641-0.15234-0.19922-0.29297-0.40234-0.42578-0.61719-0.13281-0.21093-0.25781-0.42968-0.37109-0.65625-0.11328-0.22656-0.21875-0.46093-0.3125-0.70312-0.09375-0.23828-0.17969-0.48047-0.25-0.73438-0.07031-0.25-0.13281-0.5039-0.17969-0.76562-0.05078-0.26172-0.08984-0.52735-0.11328-0.79688-0.023437-0.26964-0.039062-0.54308-0.039062-0.82042v3.586c0 0.28906 0.01563 0.57812 0.04297 0.85937v4e-3c0.02734 0.28125 0.07031 0.55859 0.125 0.83203 0.05078 0.27344 0.12109 0.54297 0.19922 0.80469v4e-3c0.07812 0.26172 0.17187 0.51563 0.27344 0.76954 0.10156 0.25 0.21875 0.49609 0.34766 0.73437 0.375 0.71094 0.85156 1.3633 1.4062 1.9336 1.4805 1.5195 3.5273 2.4609 5.8008 2.4727h28.805z" fill="#e66100"/>
    <path d="m21.406 24-0.01172 0.01172c-3.5312 6.8047-9.3984 14.914-9.3945 23.879v56.109c0 0.27734 0.01563 0.55078 0.03906 0.82031 0.02344 0.26953 0.0625 0.53516 0.10938 0.79688 0.05078 0.26172 0.11328 0.51562 0.18359 0.76953 0.07031 0.25 0.15625 0.49219 0.25 0.73047 0.09375 0.24219 0.19922 0.47656 0.3125 0.70312 0.11328 0.22657 0.23828 0.44532 0.37109 0.66016 0.13281 0.21094 0.27344 0.41406 0.42578 0.61328s0.3125 0.38672 0.47656 0.57031c0.16797 0.17969 0.34766 0.35157 0.52734 0.51172 0.18359 0.16406 0.375 0.31641 0.57422 0.46094s0.40234 0.27734 0.60938 0.40234c0.21094 0.1211 0.42969 0.23438 0.65234 0.33594 0.22266 0.0977 0.44922 0.1875 0.68359 0.26563 0.11719 0.0391 0.23438 0.0742 0.35156 0.10937 0.11719 0.0312 0.23828 0.0625 0.35938 0.0859 0.125 0.0273 0.24219 0.0508 0.36719 0.0703 0.125 0.0234 0.24609 0.0391 0.37109 0.0508 0.12891 0.0156 0.25391 0.0273 0.37891 0.0312 0.12891 8e-3 0.25781 0.0117 0.38281 0.0117h29.574v-64.109c0-8.9648-5.7891-17.074-9.3242-23.879l-0.01172-0.01172z" fill="url(#g)"/>
    <path d="m87 36.945c-4.2539 2.0781-8 6.7109-8 11.527v67.527h28.805c4.543-0.01953 8.1953-3.7656 8.1953-8.4141v-59.113c0-4.8281-3.7305-9.4531-8-11.527z" fill="url(#h)"/>
    <path d="m24 12h13v4h-13z" fill="url(#i)"/>
    <path d="m116 104c0 4.4336-3.3125 8-7.4258 8h-29.574v4h28.805c4.543-0.01953 8.1953-3.7656 8.1953-8.4141z" fill="#c01c28"/>
    <path d="m87 34.945h21v2.0312h-21z" fill="url(#j)"/>
    <path d="m87 28h21v6.9453h-21z" fill="url(#l)"/>
    <path d="m104 99.492h12v4.5078h-12z" fill="url(#m)"/>
    <path d="m30.5 54c-5.5234 0-10 4.4766-10 10s4.4766 10 10 10 10-4.4766 10-10-4.4766-10-10-10z" fill="#33d17a" fill-opacity=".8549"/>
   </g>
  </g>
 </mask>
 <mask id="r">
  <g filter="url(#p)">
   <rect width="128" height="128" fill-opacity=".8"/>
  </g>
 </mask>
 <clipPath id="t">
  <rect width="128" height="128"/>
 </clipPath>
 <path d="m27.273 12s-2.7734 6.8047-2.7734 7.2578v38.742h15v-38.744c0 2e-3 -2.5-7.2559-2.5-7.2559z" fill="#ebeaea" stroke="#000000" stroke-linecap="round" stroke-linejoin="round" stroke-opacity=".25"/>
 <path d="m27 12s-2.5 6.8047-2.5 7.2559h15c0-0.24414-2.5-7.2559-2.5-7.2559z" fill="#e3e2df" stroke="#000000" stroke-linecap="round" stroke-linejoin="round" stroke-opacity=".25"/>
 <path d="m6 23.947c0.24805 0.0078 18.5 0 18.5 0 0-6.4082-5.9219-11.947-6-15.947h-6.5c0 4-6.002 9.5391-6 15.947z" fill="#deddda" stroke="#000000" stroke-linecap="round" stroke-linejoin="round" stroke-opacity=".25"/>
 <path d="m27 9.4707v2.5293h10v-2.5293z" fill="#297bde" stroke="#000000" stroke-linecap="round" stroke-linejoin="round" stroke-opacity=".25"/>
 <path d="m32 28.018c-3.75 0-3.75 4.7285-3.75 4.7285h-3.75v7.2344h15v-7.2344h-3.75s0-4.7285-3.75-4.7285zm0 1s2.7266 3.3262 1.7285 4.9707c-0.99805 1.6445-2.4609 1.6445-3.459 0s1.7305-4.9707 1.7305-4.9707z" fill="#1f74da" stroke="#000000" stroke-linecap="round" stroke-linejoin="round" stroke-opacity=".25"/>
 <path d="m10.703 12-0.0059 0.0059c-1.7656 3.4023-4.6992 7.457-4.6972 11.939v30.055c0 0.13867 0.00781 0.27539 0.01953 0.41016s0.03125 0.26758 0.054688 0.39844c0.02539 0.13086 0.056641 0.25781 0.091797 0.38476 0.035155 0.125 0.078125 0.2461 0.125 0.36524 0.046875 0.1211 0.099609 0.23828 0.15625 0.35156 0.05664 0.11328 0.11914 0.22266 0.18555 0.33008 0.066407 0.10547 0.13672 0.20703 0.21289 0.30664s0.15625 0.19336 0.23828 0.28516c0.083984 0.08984 0.17383 0.17578 0.26367 0.25586 0.091797 0.08203 0.1875 0.1582 0.28711 0.23047 0.099609 0.07227 0.20117 0.13867 0.30469 0.20117 0.10547 0.06055 0.21484 0.11719 0.32617 0.16797 0.11133 0.04885 0.22461 0.09375 0.3418 0.13282 0.058593 0.01955 0.11719 0.0371 0.17578 0.05468 0.058594 0.0156 0.11914 0.03125 0.17969 0.04295 0.0625 0.01365 0.12109 0.0254 0.18359 0.03515 0.0625 0.0117 0.12305 0.01955 0.18555 0.0254 0.064454 0.0078 0.12695 0.01365 0.18945 0.0156 0.064453 4e-3 0.12891 0.0058 0.19141 0.0058h14.787v-34.055c0-4.4824-2.8945-8.5371-4.6621-11.939l-0.0059-0.0059z" fill="#ffbe6f" stroke="#000000" stroke-linecap="round" stroke-linejoin="round" stroke-opacity=".25"/>
 <path d="m43.5 18.473c-2.127 1.0391-4 3.3555-4 5.7637v33.764h14.402c2.2715-0.0098 4.0977-1.8828 4.0977-4.207v-29.557c0-2.4141-1.8652-4.7266-4-5.7637z" fill="#ee393e" stroke="#000000" stroke-linecap="round" stroke-linejoin="round" stroke-opacity=".25"/>
 <path d="m12 6h6.5v2h-6.5z" fill="#57e389" stroke="#000000" stroke-linecap="round" stroke-linejoin="round" stroke-opacity=".25"/>
 <path d="m43.5 17.473h10.5v1.0156h-10.5z" fill="#67656c" stroke="#000000" stroke-linecap="round" stroke-linejoin="round" stroke-opacity=".25"/>
 <path d="m43.5 14h10.5v3.4727h-10.5z" fill="#cecdca" stroke="#000000" stroke-linecap="round" stroke-linejoin="round" stroke-opacity=".25"/>
 <path d="m15.25 27c-2.7617 0-5 2.2383-5 5s2.2383 5 5 5 5-2.2383 5-5-2.2383-5-5-5z" fill="#33d17a" fill-opacity=".8549" stroke="#000000" stroke-linecap="round" stroke-linejoin="round" stroke-opacity=".25"/>
 <path d="m6 40.32v13.68c0 0.13867 0.0078114 0.27538 0.019531 0.41016 0.01172 0.13477 0.03125 0.26758 0.054688 0.39844 0.02539 0.13086 0.056641 0.25781 0.091797 0.38476 0.035155 0.125 0.078126 0.2461 0.125 0.36524 0.046875 0.1211 0.099609 0.23828 0.15625 0.35156 0.05664 0.11328 0.11914 0.22266 0.18555 0.33008 0.066407 0.10548 0.13672 0.20703 0.21289 0.30664s0.15625 0.19336 0.23828 0.28516c0.083984 0.08985 0.17383 0.17578 0.26367 0.25586 0.091798 0.08203 0.1875 0.1582 0.28711 0.23047 0.09961 0.07228 0.20117 0.13867 0.30469 0.20117 0.10547 0.06055 0.21484 0.11719 0.32617 0.16797 0.11133 0.04885 0.22461 0.093742 0.3418 0.13281 0.058594 0.01954 0.11719 0.037108 0.17578 0.054688 0.058594 0.01559 0.11914 0.031269 0.17969 0.042969 0.0625 0.01365 0.12109 0.025406 0.18359 0.035156 0.0625 0.0117 0.12305 0.019541 0.18555 0.025391 0.064454 0.0079 0.12695 0.013685 0.18945 0.015625 0.064454 4e-3 0.12891 0.005859 0.19141 0.005859h44.189c2.2715-0.0098 4.0977-1.8828 4.0977-4.207v-13.473h-52z" fill="#f8e04c" stroke="#000000" stroke-linecap="round" stroke-linejoin="round" stroke-opacity=".25"/>
 <path d="m6.6543 40.32 17.678 17.68h10.607l-17.68-17.68h-10.605zm21.211 0 17.682 17.68h8.3555c0.65263-0.002816 1.2661-0.16252 1.8125-0.43945l-17.242-17.24h-10.607zm21.215 0 8.9199 8.9199v-8.9199h-8.9199zm-43.08 9.9531v3.7266c0 0.13867 0.0078114 0.27538 0.019531 0.41016 0.01172 0.13477 0.03125 0.26758 0.054688 0.39844 0.02539 0.13086 0.056641 0.25781 0.091797 0.38476 0.035155 0.125 0.078126 0.2461 0.125 0.36524 0.046875 0.1211 0.099609 0.23828 0.15625 0.35156 0.05664 0.11328 0.11914 0.22266 0.18555 0.33008 0.066407 0.10548 0.13672 0.20703 0.21289 0.30664s0.15625 0.19336 0.23828 0.28516c0.083984 0.08985 0.17383 0.17578 0.26367 0.25586 0.091798 0.08203 0.1875 0.1582 0.28711 0.23047 0.09961 0.07228 0.20117 0.13867 0.30469 0.20117 0.10547 0.06055 0.21484 0.11719 0.32617 0.16797 0.11133 0.04885 0.22461 0.093742 0.3418 0.13281 0.058594 0.01954 0.11719 0.037108 0.17578 0.054688 0.058594 0.01559 0.11914 0.031269 0.17969 0.042969 0.0625 0.01365 0.12109 0.025406 0.18359 0.035156 0.0625 0.0117 0.12305 0.019541 0.18555 0.025391 0.064454 0.0079 0.12695 0.013685 0.18945 0.015625 0.064454 4e-3 0.12891 0.005859 0.19141 0.005859h4.0137l-7.7266-7.7266z" fill="#000000" stroke="#000000" stroke-linecap="round" stroke-linejoin="round" stroke-opacity=".25"/>
</svg>

<svg xmlns="http://www.w3.org/2000/svg" width="64" height="64"><path fill="#ebeaea" stroke="#000" stroke-linecap="round" stroke-linejoin="round" stroke-opacity=".25" d="M27.273 12S24.5 18.805 24.5 19.258V58h15V19.256L37 12z"/><path fill="#e3e2df" stroke="#000" stroke-linecap="round" stroke-linejoin="round" stroke-opacity=".25" d="M27 12s-2.5 6.805-2.5 7.256h15C39.5 19.012 37 12 37 12z"/><path fill="#deddda" stroke="#000" stroke-linecap="round" stroke-linejoin="round" stroke-opacity=".25" d="M6 23.947c.248.008 18.5 0 18.5 0C24.5 17.539 18.578 12 18.5 8H12c0 4-6.002 9.54-6 15.947"/><path fill="#297bde" stroke="#000" stroke-linecap="round" stroke-linejoin="round" stroke-opacity=".25" d="M27 9.47V12h10V9.47z"/><path fill="#1f74da" stroke="#000" stroke-linecap="round" stroke-linejoin="round" stroke-opacity=".25" d="M32 28.018c-3.75 0-3.75 4.729-3.75 4.729H24.5v7.234h15v-7.235h-3.75s0-4.728-3.75-4.728m0 1s2.727 3.326 1.728 4.97c-.998 1.645-2.46 1.645-3.459 0S32 29.019 32 29.019z"/><path fill="#ffbe6f" stroke="#000" stroke-linecap="round" stroke-linejoin="round" stroke-opacity=".25" d="m10.703 12-.006.006C8.931 15.408 5.997 19.463 6 23.945V54a5 5 0 0 0 .074.808q.04.196.092.385a4.1 4.1 0 0 0 .918 1.639 4 4 0 0 0 .55.486q.15.109.305.201a3.6 3.6 0 0 0 .668.301q.089.029.176.055.09.024.18.043a3 3 0 0 0 .369.06 3 3 0 0 0 .38.021H24.5V23.946c0-4.483-2.895-8.537-4.662-11.94L19.832 12z"/><path fill="#ee393e" stroke="#000" stroke-linecap="round" stroke-linejoin="round" stroke-opacity=".25" d="M43.5 18.473c-2.127 1.04-4 3.356-4 5.764V58h14.402C56.174 57.99 58 56.118 58 53.794V24.237c0-2.414-1.865-4.727-4-5.764z"/><path fill="#57e389" stroke="#000" stroke-linecap="round" stroke-linejoin="round" stroke-opacity=".25" d="M12 6h6.5v2H12z"/><path fill="#67656c" stroke="#000" stroke-linecap="round" stroke-linejoin="round" stroke-opacity=".25" d="M43.5 17.473H54v1.016H43.5z"/><path fill="#cecdca" stroke="#000" stroke-linecap="round" stroke-linejoin="round" stroke-opacity=".25" d="M43.5 14H54v3.473H43.5z"/><path fill="#33d17a" fill-opacity=".855" stroke="#000" stroke-linecap="round" stroke-linejoin="round" stroke-opacity=".25" d="M15.25 27a5 5 0 1 0 0 10 5 5 0 0 0 0-10"/><path fill="#f8e04c" stroke="#000" stroke-linecap="round" stroke-linejoin="round" stroke-opacity=".25" d="M6 40.32V54a5 5 0 0 0 .074.809 6 6 0 0 0 .092.384 4.1 4.1 0 0 0 .918 1.639 4 4 0 0 0 .55.486q.15.109.305.202.159.09.327.168.166.073.341.132.089.029.176.055.09.024.18.043a3 3 0 0 0 .369.06 3 3 0 0 0 .38.021h44.19C56.173 57.991 58 56.118 58 53.794V40.32z"/><path stroke="#000" stroke-linecap="round" stroke-linejoin="round" stroke-opacity=".25" d="M6.654 40.32 24.332 58H34.94L17.26 40.32zm21.211 0L45.547 58h8.356a4 4 0 0 0 1.812-.44L38.473 40.32H27.866zm21.215 0L58 49.24v-8.92zM6 50.273V54a5 5 0 0 0 .075.808 4 4 0 0 0 .217.75 4.1 4.1 0 0 0 .792 1.274 4 4 0 0 0 .551.486q.15.108.305.201.159.09.326.168.167.075.342.133.087.029.176.055.088.024.18.043a3 3 0 0 0 .368.06 3 3 0 0 0 .38.021h4.015z"/></svg>
